X:1
T:Title
%%score { ( 1 3 ) | ( 2 4 ) }
L:1/8
M:6/8
K:Ab
V:1 treble nm="Grand Piano"
V:3 treble 
V:2 bass 
V:4 bass 
V:1
 z3 z2[Q:1/4=78] [CE]/[CE]/ | [CA]>[CA][CA] [CA][DB][Ec] | [CE] [CE]2- [CE]2 [CE]/[CE]/ | %3
 [DF]2 [FA] [FA]>[EG][DF] |[M:5/8] [CE]-[CE]- [CE]3 |[M:1/8] [CE]/[CE]/ | %6
[M:3/4] [CA]>[CA] [CA][CA] [DB][Ec] | [CE][CE]- [CE]3 [CE]/[CE]/ | [DF]2 [FA]G- G/F/E | %9
[M:9/16] [CA]4- [CA]/ |[M:2/4] e3 A |[M:3/4] G>A B [CEA]2 [CEA]/[B,EB]/ | c>B A B2 E | %13
 A>A A[CA] [DB][Ec] | E-[CE-] [DE-] [CE]2 [CE]/[CE]/ | A->[CA-] [CA-][CA] B[Ec] | %16
 E-[CE-] [DE-] [CE]2 [CE] | F4 z2 |[M:13/16] E/-E/-E/-E/-E/-E/-E-<E z/ z |[M:3/4] A>A AG AB | %20
[M:5/8] [CEA]-[CEA]- [CEA]3 |] %21
V:2
 z3 z2 [A,,A,]/[A,,A,]/ | [A,,E,]>[A,,E,][A,,E,] [A,,E,][A,,E,][A,,A,] | %2
 [A,,A,] [A,,A,]2- [A,,A,]2 [A,,A,]/[A,,A,]/ | [D,A,]2 [D,A,] [D,A,]>[D,A,][D,A,] | %4
[M:5/8] [A,,A,]-[A,,A,]- [A,,A,]3 |[M:1/8] [A,,A,]/[A,,A,]/ | %6
[M:3/4] [A,,E,]>[A,,E,] [A,,E,][A,,E,] [A,,E,][A,,A,] | [A,,A,][A,,A,]- [A,,A,]3 [A,,A,]/[A,,A,]/ | %8
 [D,A,]2 [D,D][E,B,E]- [E,B,E]/[E,A,E]/[E,G,D] |[M:9/16] [A,,A,]4- [A,,A,]/ | %10
[M:2/4][K:treble] [A,CA]3 [A,CE] |[M:3/4][K:bass] [E,B,E]>[E,CE] [E,DE] A,,2 A,,/A,,/ | %12
 [A,E]>[G,B,E] [F,B,=D] [E,G,E]2 [E,G,_D] | [A,,E,]3 [A,,E,]2 [A,,A,] | %14
 [A,,A,][A,,A,] [A,,B,] [A,,A,]2 [A,,A,]/[A,,A,]/ | [A,,E,]>[A,,E,] .[A,,E,]2 D[A,,A,] | %16
 [A,,A,][A,,A,] [A,,B,] [A,,A,]2 [A,,A,] | [D,A,D]>[D,A,] .[D,A,]2 ED, | %18
[M:13/16] A,,A,,A,,[A,,A,]-<[A,,A,][A,CE]3/2 |[M:3/4] [E,CE]>[E,CE] [E,CE][E,B,E] [E,CE][E,DE] | %20
[M:5/8] A,,-A,,- A,,3 |] %21
V:3
 x6 | x6 | x6 | x6 |[M:5/8] x5 |[M:1/8] x |[M:3/4] x6 | x6 | x6 |[M:9/16] x9/2 |[M:2/4] x4 | %11
[M:3/4] x6 | x6 | C4 z2 | .C2 z2 z2 | C2 z2 z2 | .C2 z2 z2 | z z/ D/ DD G[A,FA] | %18
[M:13/16] [A,C][A,C][B,D]C-<Ce3/2 |[M:3/4] x6 |[M:5/8] x5 |] %21
V:4
 x6 | x6 | x6 | x6 |[M:5/8] x5 |[M:1/8] x |[M:3/4] x6 | x6 | x6 |[M:9/16] x9/2 | %10
[M:2/4][K:treble] x4 |[M:3/4][K:bass] x6 | x6 | x6 | x6 | z2 z .[A,,E,]3 | x6 | z2 z .[D,A,]3 | %18
[M:13/16] x13/2 |[M:3/4] x6 |[M:5/8] x5 |] %21

